X:214
T:The Three Merry Sisters of Fate
M:4/4
L:1/8
R:reel
D:Altan: Best Of
Z:Michael Abraham Shulman
K:D
ea^ga fece|fB~B2 fece|aa^ga fecd|eA~A2 eAcd|
ea^ga fece|fB~B2 fece|aa^ga fgaf|e^def gece||
|:d2fd edce|fB~B2 fBce|defd edcd|eA~A2 eAce:|
